X:123
T:Kite Hornpipe TS.123
T:Keys Hornpipe,aka TS.123
M:C|
L:1/8
Q:1/2=90
S:Thomas Sands’ MS,1810,Lincolnshire
R:.hornpipe
O:England;Lincolnshire
Z:vmp.Ruairidh Greig, 2011
K:Bb
fg/a/|bBba gfed|efgB BAGF|GBAc Bdce|dfgB BAGF|
bBba gfed|efgB BAGF|GBAc Bdce|dfgA B2:|
|:GF/E/|DBFB DBFB|EBGB EBGB|EecA EecA|edcB AGFE|
DBFB DBFB|EBGB EBGB|EecA EecA|B2B2B2:|]

